logos/webstorm.svg

<?xml version="1.0" encoding="UTF-8"?>
<svg width="256px" height="256px" viewBox="0 0 256 256" version="1.1" xmlns="http://www.w3.org/2000/svg" preserveAspectRatio="xMidYMid">
    <title>WebStorm</title>
    <defs>
        <linearGradient x1="43.8961557%" y1="1.95055805%" x2="66.1603983%" y2="95.243559%" id="webstormLinearGradient-1">
            <stop stop-color="#07C3F2" offset="28%"></stop>
            <stop stop-color="#087CFA" offset="94%"></stop>
        </linearGradient>
        <linearGradient x1="33.0630529%" y1="15.0779309%" x2="70.3624968%" y2="84.6848882%" id="webstormLinearGradient-2">
            <stop stop-color="#FCF84A" offset="14%"></stop>
            <stop stop-color="#07C3F2" offset="37%"></stop>
        </linearGradient>
        <linearGradient x1="44.4163397%" y1="25.0583139%" x2="56.2028807%" y2="90.2032656%" id="webstormLinearGradient-3">
            <stop stop-color="#07C3F2" offset="28%"></stop>
            <stop stop-color="#087CFA" offset="94%"></stop>
        </linearGradient>
    </defs>
    <g>
        <polygon fill="url(#webstormLinearGradient-1)" points="34.5066667 231.36 0 26.8266667 63.8133333 0.346666667 104.56 24.56 141.893333 4.42666667 219.68 34.2933333 176.053333 256"></polygon>
        <polygon fill="url(#webstormLinearGradient-2)" points="256 86.6933333 222.96 5.09333333 163.013333 0 70.48 88.9066667 95.3866667 203.493333 141.893333 236.106667 256 168.4 228 115.893333"></polygon>
        <polygon fill="url(#webstormLinearGradient-3)" points="204.72 74.5333333 228 115.893333 256 86.6933333 235.44 35.8666667"></polygon>
        <polygon fill="#000000" points="48 48 208 48 208 208 48 208"></polygon>
        <path d="M67.9466667,177.76 L127.946667,177.76 L127.946667,187.76 L67.9466667,187.76 L67.9466667,177.76 Z M124.746667,67.92 L115.813333,102.933333 L105.6,67.92 L95.44,67.92 L85.2,102.933333 L76.2933333,67.92 L62.2933333,67.92 L79.44,127.946667 L90.6933333,127.946667 L100.506667,93.2 L110.213333,127.946667 L121.6,127.946667 L138.72,67.92 L124.746667,67.92 Z M141.226667,119.626667 L149.04,110.026667 C153.948098,114.559198 160.334885,117.155607 167.013333,117.333333 C172.346667,117.333333 175.706667,115.2 175.706667,111.653333 L175.706667,111.493333 C175.706667,109.594203 175.042168,108.223264 172.649008,106.923072 L172.267048,106.723539 L172.267048,106.723539 L171.85695,106.524752 C171.786207,106.491662 171.714257,106.458588 171.64108,106.425522 L171.18716,106.22716 C171.109007,106.194096 171.029591,106.161023 170.948896,106.127936 L170.449218,105.929166 L170.449218,105.929166 L169.917957,105.729662 C169.826734,105.69633 169.734159,105.662951 169.640215,105.629519 L169.059967,105.42822 C168.960471,105.394542 168.85957,105.360794 168.757246,105.32697 L168.126072,105.123042 L168.126072,105.123042 L167.459872,104.916899 C167.345872,104.882336 167.230377,104.847666 167.113368,104.812881 L166.393013,104.602721 L166.393013,104.602721 L165.635479,104.38942 L165.635479,104.38942 L164.839905,104.172609 L164.839905,104.172609 L164.005429,103.951917 L164.005429,103.951917 L162.400279,103.536252 L162.400279,103.536252 L161.255512,103.229072 L161.255512,103.229072 L160.508409,103.021524 L160.508409,103.021524 L159.774417,102.811168 L159.774417,102.811168 L159.053751,102.597492 L159.053751,102.597492 L158.346626,102.379982 L158.346626,102.379982 L157.653259,102.158126 L157.653259,102.158126 L156.973863,101.931411 C156.861807,101.893192 156.750342,101.854749 156.639473,101.816071 L155.981439,101.581106 L155.981439,101.581106 L155.337917,101.34 L155.337917,101.34 L154.70912,101.09224 L154.70912,101.09224 L154.095264,100.837312 C153.994212,100.794199 153.893791,100.750765 153.794007,100.707001 L153.202967,100.440362 L153.202967,100.440362 L152.627406,100.165273 C147.044543,97.4170154 143.738096,93.3689019 143.629432,85.8265324 L143.626667,85.2533333 C143.626667,74.4614737 152.21627,67.2725481 164.306299,67.1223981 L164.693333,67.12 C172.808472,66.9764702 180.716715,69.6849019 187.04,74.7733333 L180.16,84.7466667 C175.664378,81.2296796 170.204516,79.1647911 164.506667,78.8266667 C159.44,78.8266667 156.773333,81.1466667 156.773333,84.16 L156.773333,84.3466667 C156.773333,86.7489855 157.761361,88.2027977 160.86205,89.5741311 L161.319499,89.7695683 C161.476853,89.8345894 161.63912,89.8995169 161.80642,89.9644444 L162.323542,90.1593206 L162.323542,90.1593206 L162.871593,90.3547578 L162.871593,90.3547578 L163.451303,90.5513171 L163.451303,90.5513171 L164.0634,90.7495597 L164.0634,90.7495597 L164.708612,90.9500467 L164.708612,90.9500467 L165.387668,91.153339 L165.387668,91.153339 L166.471304,91.464765 L166.471304,91.464765 L167.238158,91.6775255 L167.238158,91.6775255 L168.041406,91.8950553 L168.041406,91.8950553 L169.76,92.3466667 C170.044031,92.4210853 170.325178,92.4961385 170.60342,92.5718886 L171.429417,92.8012923 C171.565625,92.8398955 171.701102,92.8786886 171.835845,92.9176793 L172.635488,93.1540575 L172.635488,93.1540575 L173.417416,93.3955532 L173.417416,93.3955532 L174.181512,93.6425407 L174.181512,93.6425407 L174.927659,93.8953945 L174.927659,93.8953945 L175.655741,94.1544886 C175.775576,94.1982118 175.894654,94.2422106 176.012971,94.2864928 L176.713736,94.5556495 C184.43667,97.600603 188.726057,101.987809 188.850545,110.062635 L188.853333,110.586667 C188.853333,122.533333 179.733333,129.253925 166.746667,129.253925 C157.345887,129.290428 148.260844,125.863363 141.226667,119.626667 Z" fill="#FFFFFF"></path>
    </g>
</svg>

<svg preserveAspectRatio="xMidYMid" viewBox="0 0 256 256" xmlns="http://www.w3.org/2000/svg">
  <defs>
    <linearGradient id="webstorm_svg__a" x1="43.896%" x2="66.16%" y1="1.951%" y2="95.244%">
      <stop offset="28%" stop-color="#07C3F2"/>
      <stop offset="94%" stop-color="#087CFA"/>
    </linearGradient>
    <linearGradient id="webstorm_svg__b" x1="33.063%" x2="70.362%" y1="15.078%" y2="84.685%">
      <stop offset="14%" stop-color="#FCF84A"/>
      <stop offset="37%" stop-color="#07C3F2"/>
    </linearGradient>
    <linearGradient id="webstorm_svg__c" x1="44.416%" x2="56.203%" y1="25.058%" y2="90.203%">
      <stop offset="28%" stop-color="#07C3F2"/>
      <stop offset="94%" stop-color="#087CFA"/>
    </linearGradient>
  </defs>
  <path fill="url(#webstorm_svg__a)" d="M34.507 231.36 0 26.827 63.813.347 104.56 24.56l37.333-20.133 77.787 29.866L176.053 256z"/>
  <path fill="url(#webstorm_svg__b)" d="m256 86.693-33.04-81.6L163.013 0 70.48 88.907l24.907 114.586 46.506 32.614L256 168.4l-28-52.507z"/>
  <path fill="url(#webstorm_svg__c)" d="m204.72 74.533 23.28 41.36 28-29.2-20.56-50.826z"/>
  <path d="M48 48h160v160H48z"/>
  <path fill="#FFF" d="M67.947 177.76h60v10h-60v-10Zm56.8-109.84-8.934 35.013L105.6 67.92H95.44L85.2 102.933 76.293 67.92h-14l17.147 60.027h11.253l9.814-34.747 9.706 34.747H121.6l17.12-60.027h-13.973Zm16.48 51.707 7.813-9.6a27.573 27.573 0 0 0 17.973 7.306c5.334 0 8.694-2.133 8.694-5.68v-.16c0-1.899-.665-3.27-3.058-4.57l-.382-.2-.41-.198a18.12 18.12 0 0 0-.216-.1l-.454-.198a23.226 23.226 0 0 0-.238-.1l-.5-.198-.531-.2a35.055 35.055 0 0 0-.278-.1l-.58-.2-.303-.102-.63-.204-.667-.206a66.86 66.86 0 0 0-.347-.104l-.72-.21-.758-.214-.795-.216-.835-.221-1.605-.416-1.144-.307-.748-.207-.734-.21-.72-.215-.707-.217-.694-.222-.68-.227a50.802 50.802 0 0 1-.334-.115l-.658-.235-.643-.241-.629-.248-.614-.255a32.62 32.62 0 0 1-.301-.13l-.591-.267-.576-.275c-5.582-2.748-8.889-6.796-8.998-14.338l-.002-.574c0-10.792 8.59-17.98 20.68-18.13l.386-.003a34.667 34.667 0 0 1 22.347 7.653l-6.88 9.974a28.107 28.107 0 0 0-15.653-5.92c-5.067 0-7.734 2.32-7.734 5.333v.187c0 2.402.988 3.856 4.09 5.227l.456.196c.158.065.32.13.487.194l.518.195.548.196.58.196.611.199.646.2.679.203 1.083.312.767.213.803.217 1.719.452c.284.074.565.15.843.225l.826.23c.137.038.272.077.407.116l.8.236.781.242.765.247.746.252.728.26.357.131.7.27c7.724 3.045 12.013 7.432 12.138 15.507l.002.524c0 11.946-9.12 18.667-22.106 18.667a38.244 38.244 0 0 1-25.52-9.627Z"/>
</svg>
